assets/images/icons/inclusion.svg

<svg width="20" height="20" viewBox="0 0 20 20" fill="none" xmlns="http://www.w3.org/2000/svg">
<g id="fi_5291043">
<g id="7-Check">
<path id="Vector" d="M5.24733 9.48035C5.01115 9.48103 4.77998 9.55029 4.58056 9.68012C4.38115 9.80995 4.22164 9.99505 4.1205 10.214C4.01936 10.4329 3.98071 10.6768 4.00902 10.9173C4.03734 11.1579 4.13147 11.3853 4.28051 11.5732L7.4578 15.5659C7.57109 15.7102 7.71631 15.8247 7.88139 15.8999C8.04647 15.975 8.22665 16.0087 8.40697 15.9981C8.79262 15.9768 9.1408 15.7652 9.36279 15.4172L15.9628 4.5134C15.9639 4.51159 15.965 4.50978 15.9662 4.508C16.0281 4.41046 16.008 4.21716 15.8802 4.09573C15.8451 4.06238 15.8037 4.03676 15.7586 4.02044C15.7135 4.00413 15.6655 3.99747 15.6178 4.00086C15.5701 4.00426 15.5235 4.01764 15.481 4.04019C15.4385 4.06274 15.401 4.09398 15.3707 4.13198C15.3683 4.13497 15.3659 4.13791 15.3634 4.14081L8.70712 11.8556C8.68179 11.8849 8.65103 11.9088 8.61662 11.9259C8.58221 11.9429 8.54484 11.9528 8.50668 11.9549C8.46852 11.9571 8.43033 11.9514 8.39432 11.9382C8.35832 11.9251 8.32523 11.9047 8.29696 11.8783L6.08788 9.81614C5.85845 9.60039 5.55858 9.48059 5.24733 9.48035Z" fill="#7FB51F"/>
</g>
</g>
</svg>

<svg xmlns="http://www.w3.org/2000/svg" width="20" height="20" fill="none"><path fill="#7FB51F" d="M5.247 9.48c-.236.001-.467.07-.666.2-.2.13-.36.315-.46.534a1.31 1.31 0 0 0 .16 1.36l3.177 3.992a1.11 1.11 0 0 0 .95.432c.385-.021.733-.233.955-.58l6.6-10.905.003-.005c.062-.098.042-.29-.086-.412A.35.35 0 0 0 15.618 4a.34.34 0 0 0-.255.14l-6.656 7.715a.3.3 0 0 1-.2.099.28.28 0 0 1-.21-.077l-2.21-2.062a1.23 1.23 0 0 0-.84-.336"/></svg>
